studio-config-v1.0.0_aces-v1.3_ocio-v2.0_MA.ocio
ocio_profile_version: 2

environment:
  CAMERA_FAMILY: ACES   #  ARRIv3, ARRIv4, RED, SONY, SONYCine, ACES #CHANGE HERE
  LUT_PATH: identity.cube
  CCC_PATH: identity.ccc

search_path: LUT_PATH:CCC_PATH
strictparsing: true
luma: [0.2126, 0.7152, 0.0722]
name: studio-config-v1.0.0_aces-v1.3_ocio-v2.0
description: |
  Academy Color Encoding System - Studio Config [COLORSPACES v1.0.0] [ACES v1.3] [OCIO v2.0]
  ------------------------------------------------------------------------------------------
  
  This "OpenColorIO" config is geared toward studios requiring a config that includes a wide variety of camera colorspaces, displays and looks.
  
  Generated with "OpenColorIO-Config-ACES" v1.0.0 on the 2022/10/26 at 05:59.

roles:
  compositing_linear: ACEScg #CHANGE HERE
  aces_interchange: ACES2065-1
  cie_xyz_d65_interchange: CIE-XYZ-D65
  color_picking: sRGB - Texture
  color_timing: ACEScct #CHANGE HERE
  compositing_log: ACEScct #CHANGE HERE
  data: Raw
  default: ACES2065-1
  matte_paint: sRGB - Texture
  scene_linear: ACEScg
  texture_paint: ACEScct
  mari_int8: sRGB - Texture - 1.22
  mari_int16: sRGB - Texture - 1.22
  mari_scalar8: Raw
  mari_int_scalar: Raw
  mari_float: ACEScg
  mari_working: ACEScg
  mari_monitor: sRGB - Texture
  mari_scalar_monitor: Raw

file_rules:
  - !<Rule> {name: Default, colorspace: ACES2065-1}

# shared_views:
#   - !<View> {name: ACES 1.0 - SDR Video, view_transform: ACES 1.0 - SDR Video, display_colorspace: <USE_DISPLAY_NAME>}
#   - !<View> {name: ACES 1.0 - SDR Video (D60 sim on D65), view_transform: ACES 1.0 - SDR Video (D60 sim on D65), display_colorspace: <USE_DISPLAY_NAME>}
#   - !<View> {name: ACES 1.1 - SDR Video (P3 lim), view_transform: ACES 1.1 - SDR Video (P3 lim), display_colorspace: <USE_DISPLAY_NAME>}
#   - !<View> {name: ACES 1.1 - SDR Video (Rec.709 lim), view_transform: ACES 1.1 - SDR Video (Rec.709 lim), display_colorspace: <USE_DISPLAY_NAME>}
#   - !<View> {name: ACES 1.1 - HDR Video (1000 nits & Rec.2020 lim), view_transform: ACES 1.1 - HDR Video (1000 nits & Rec.2020 lim), display_colorspace: <USE_DISPLAY_NAME>}
#   - !<View> {name: ACES 1.1 - HDR Video (2000 nits & Rec.2020 lim), view_transform: ACES 1.1 - HDR Video (2000 nits & Rec.2020 lim), display_colorspace: <USE_DISPLAY_NAME>}
#   - !<View> {name: ACES 1.1 - HDR Video (4000 nits & Rec.2020 lim), view_transform: ACES 1.1 - HDR Video (4000 nits & Rec.2020 lim), display_colorspace: <USE_DISPLAY_NAME>}
#   - !<View> {name: ACES 1.1 - HDR Video (1000 nits & P3 lim), view_transform: ACES 1.1 - HDR Video (1000 nits & P3 lim), display_colorspace: <USE_DISPLAY_NAME>}
#   - !<View> {name: ACES 1.1 - HDR Video (2000 nits & P3 lim), view_transform: ACES 1.1 - HDR Video (2000 nits & P3 lim), display_colorspace: <USE_DISPLAY_NAME>}
#   - !<View> {name: ACES 1.1 - HDR Video (4000 nits & P3 lim), view_transform: ACES 1.1 - HDR Video (4000 nits & P3 lim), display_colorspace: <USE_DISPLAY_NAME>}
#   - !<View> {name: ACES 1.0 - SDR Cinema, view_transform: ACES 1.0 - SDR Cinema, display_colorspace: <USE_DISPLAY_NAME>}
#   - !<View> {name: ACES 1.1 - SDR Cinema (D60 sim on D65), view_transform: ACES 1.1 - SDR Cinema (D60 sim on D65), display_colorspace: <USE_DISPLAY_NAME>}
#   - !<View> {name: ACES 1.1 - SDR Cinema (Rec.709 lim), view_transform: ACES 1.1 - SDR Cinema (Rec.709 lim), display_colorspace: <USE_DISPLAY_NAME>}
#   - !<View> {name: ACES 1.0 - SDR Cinema (D60 sim on DCI), view_transform: ACES 1.0 - SDR Cinema (D60 sim on DCI), display_colorspace: <USE_DISPLAY_NAME>}
#   - !<View> {name: ACES 1.1 - SDR Cinema (D65 sim on DCI), view_transform: ACES 1.1 - SDR Cinema (D65 sim on DCI), display_colorspace: <USE_DISPLAY_NAME>}
#   - !<View> {name: ACES 1.1 - HDR Cinema (108 nits & P3 lim), view_transform: ACES 1.1 - HDR Cinema (108 nits & P3 lim), display_colorspace: <USE_DISPLAY_NAME>}
#   - !<View> {name: Un-tone-mapped, view_transform: Un-tone-mapped, display_colorspace: <USE_DISPLAY_NAME>}

displays:
  # sRGB - Display:
  #   - !<View> {name: Raw, colorspace: Raw}
  #   - !<Views> [ACES 1.0 - SDR Video, ACES 1.0 - SDR Video (D60 sim on D65), Un-tone-mapped]
  # Rec.1886 Rec.709 - Display:
    # - !<View> {name: Raw, colorspace: Raw}
    # - !<Views> [ACES 1.0 - SDR Video, ACES 1.0 - SDR Video (D60 sim on D65), Un-tone-mapped]
  # Rec.1886 Rec.2020 - Display:
  #   - !<View> {name: Raw, colorspace: Raw}
  #   - !<Views> [ACES 1.0 - SDR Video, ACES 1.1 - SDR Video (P3 lim), ACES 1.1 - SDR Video (Rec.709 lim), Un-tone-mapped]
  # Rec.2100-HLG - Display:
  #   - !<View> {name: Raw, colorspace: Raw}
  #   - !<Views> [ACES 1.1 - HDR Video (1000 nits & Rec.2020 lim), Un-tone-mapped]
  # Rec.2100-PQ - Display:
  #   - !<View> {name: Raw, colorspace: Raw}
  #   - !<Views> [ACES 1.1 - HDR Video (1000 nits & Rec.2020 lim), ACES 1.1 - HDR Video (2000 nits & Rec.2020 lim), ACES 1.1 - HDR Video (4000 nits & Rec.2020 lim), Un-tone-mapped]
  # ST2084-P3-D65 - Display:
  #   - !<View> {name: Raw, colorspace: Raw}
  #   - !<Views> [ACES 1.1 - HDR Video (1000 nits & P3 lim), ACES 1.1 - HDR Video (2000 nits & P3 lim), ACES 1.1 - HDR Video (4000 nits & P3 lim), ACES 1.1 - HDR Cinema (108 nits & P3 lim), Un-tone-mapped]
  # P3-D60 - Display:
  #   - !<View> {name: Raw, colorspace: Raw}
  #   - !<Views> [ACES 1.0 - SDR Cinema, Un-tone-mapped]
  # P3-D65 - Display:
  #   - !<View> {name: Raw, colorspace: Raw}
  #   - !<Views> [ACES 1.0 - SDR Cinema, ACES 1.1 - SDR Cinema (D60 sim on D65), ACES 1.1 - SDR Cinema (Rec.709 lim), Un-tone-mapped]
  # P3-DCI - Display:
  #   - !<View> {name: Raw, colorspace: Raw}
  #   - !<Views> [ACES 1.0 - SDR Cinema (D60 sim on DCI), ACES 1.1 - SDR Cinema (D65 sim on DCI), Un-tone-mapped]
  STUDIO:
    # - !<View> {name: Lookdev Look, colorspace: Gamma 1.8 Rec.709 - Texture}
    - !<View> {name: Lookdev Look, colorspace: ACEScg, looks: lookdev}
    - !<View> {name: Client Look, colorspace: ACEScg, looks: client}
    - !<View> {name: CG Look, colorspace: ACEScg, looks: cg}
    - !<View> {name: Log, colorspace: ACEScct} #CHANGE HERE
    - !<View> {name: Raw, colorspace: Raw}

# active_displays: [STUDIO, sRGB - Display, Rec.1886 Rec.709 - Display, Rec.1886 Rec.2020 - Display, Rec.2100-HLG - Display, Rec.2100-PQ - Display, ST2084-P3-D65 - Display, P3-D60 - Display, P3-D65 - Display, P3-DCI - Display]
# active_views: [ACES 1.0 - SDR Video, ACES 1.0 - SDR Video (D60 sim on D65), ACES 1.1 - SDR Video (P3 lim), ACES 1.1 - SDR Video (Rec.709 lim), ACES 1.1 - HDR Video (1000 nits & Rec.2020 lim), ACES 1.1 - HDR Video (2000 nits & Rec.2020 lim), ACES 1.1 - HDR Video (4000 nits & Rec.2020 lim), ACES 1.1 - HDR Video (1000 nits & P3 lim), ACES 1.1 - HDR Video (2000 nits & P3 lim), ACES 1.1 - HDR Video (4000 nits & P3 lim), ACES 1.0 - SDR Cinema, ACES 1.1 - SDR Cinema (D60 sim on D65), ACES 1.1 - SDR Cinema (Rec.709 lim), ACES 1.0 - SDR Cinema (D60 sim on DCI), ACES 1.1 - SDR Cinema (D65 sim on DCI), ACES 1.1 - HDR Cinema (108 nits & P3 lim), Un-tone-mapped, Raw]
active_displays: [STUDIO]
active_views: [Lookdev Look, Client Look, CG Look, Log, Raw]

inactive_colorspaces: [CIE-XYZ-D65, sRGB - Display, Rec.1886 Rec.709 - Display, Rec.1886 Rec.2020 - Display, sRGB - Display, Rec.1886 Rec.709 - Display, Rec.1886 Rec.2020 - Display, Rec.1886 Rec.2020 - Display, Rec.2100-HLG - Display, Rec.2100-PQ - Display, Rec.2100-PQ - Display, Rec.2100-PQ - Display, ST2084-P3-D65 - Display, ST2084-P3-D65 - Display, ST2084-P3-D65 - Display, P3-D60 - Display, P3-D65 - Display, P3-D65 - Display, P3-D65 - Display, P3-DCI - Display, P3-DCI - Display, ST2084-P3-D65 - Display]

##### START STUDIO #############
looks:
  - !<Look>
    name: client
    process_space: ACEScg
    transform: !<GroupTransform>
      children:
        - !<ColorSpaceTransform> {src: ACEScg, dst: ACEScct} #CHANGE HERE TWICE
        - !<FileTransform> {src: $CCC_PATH, interpolation: linear, cccid: 0}
        - !<FileTransform> {src: $LUT_PATH, interpolation: tetrahedral}

  - !<Look>
    name: cg
    process_space: ACEScg
    transform: !<GroupTransform>
      children:
        - !<ColorSpaceTransform> {src: ACEScg, dst: ACEScg} #CHANGE HERE
        - !<ColorSpaceTransform> {src: ACEScg, dst: ACEScct} #CHANGE HERE TWICE
        - !<FileTransform> {src: $CCC_PATH, interpolation: linear, cccid: 0}
        - !<FileTransform> {src: $LUT_PATH, interpolation: tetrahedral}

  - !<Look>
    name: lookdev
    process_space: ACEScg
    description: |
      Component of ACES Output Transforms for SDR D65 video
      
      ACEStransformID: urn:ampas:aces:transformId:v1.5:ODT.Academy.RGBmonitor_100nits_dim.a1.0.3
      ACEStransformID: urn:ampas:aces:transformId:v1.5:ODT.Academy.Rec709_100nits_dim.a1.0.3
      ACEStransformID: urn:ampas:aces:transformId:v1.5:ODT.Academy.Rec2020_100nits_dim.a1.0.3
    transform: !<GroupTransform>
      children:
        - !<ColorSpaceTransform> {src: ACEScg, dst: ACES2065-1}
        - !<BuiltinTransform> {style: ACES-OUTPUT - ACES2065-1_to_CIE-XYZ-D65 - SDR-VIDEO_1.0}
        - !<BuiltinTransform> {style: DISPLAY - CIE-XYZ-D65_to_REC.1886-REC.709}


##### END STUDIO #############

default_view_transform: Un-tone-mapped

view_transforms:

  - !<ViewTransform>
    name: ACES 1.0 - SDR Video
    description: |
      Component of ACES Output Transforms for SDR D65 video
      
      ACEStransformID: urn:ampas:aces:transformId:v1.5:ODT.Academy.RGBmonitor_100nits_dim.a1.0.3
      ACEStransformID: urn:ampas:aces:transformId:v1.5:ODT.Academy.Rec709_100nits_dim.a1.0.3
      ACEStransformID: urn:ampas:aces:transformId:v1.5:ODT.Academy.Rec2020_100nits_dim.a1.0.3
    from_scene_reference: !<BuiltinTransform> {style: ACES-OUTPUT - ACES2065-1_to_CIE-XYZ-D65 - SDR-VIDEO_1.0}

  - !<ViewTransform>
    name: ACES 1.0 - SDR Video (D60 sim on D65)
    description: |
      Component of ACES Output Transforms for SDR D65 video simulating D60 white
      
      ACEStransformID: urn:ampas:aces:transformId:v1.5:ODT.Academy.RGBmonitor_D60sim_100nits_dim.a1.0.3
      ACEStransformID: urn:ampas:aces:transformId:v1.5:ODT.Academy.Rec709_D60sim_100nits_dim.a1.0.3
    from_scene_reference: !<BuiltinTransform> {style: ACES-OUTPUT - ACES2065-1_to_CIE-XYZ-D65 - SDR-VIDEO-D60sim-D65_1.0}

  - !<ViewTransform>
    name: ACES 1.1 - SDR Video (P3 lim)
    description: |
      Component of ACES Output Transforms for SDR D65 video
      
      ACEStransformID: urn:ampas:aces:transformId:v1.5:ODT.Academy.Rec2020_P3D65limited_100nits_dim.a1.1.0
    from_scene_reference: !<BuiltinTransform> {style: ACES-OUTPUT - ACES2065-1_to_CIE-XYZ-D65 - SDR-VIDEO-P3lim_1.1}

  - !<ViewTransform>
    name: ACES 1.1 - SDR Video (Rec.709 lim)
    description: |
      Component of ACES Output Transforms for SDR D65 video
      
      ACEStransformID: urn:ampas:aces:transformId:v1.5:ODT.Academy.Rec2020_Rec709limited_100nits_dim.a1.1.0
    from_scene_reference: !<BuiltinTransform> {style: ACES-OUTPUT - ACES2065-1_to_CIE-XYZ-D65 - SDR-VIDEO-REC709lim_1.1}

  - !<ViewTransform>
    name: ACES 1.1 - HDR Video (1000 nits & Rec.2020 lim)
    description: |
      Component of ACES Output Transforms for 1000 nit HDR D65 video
      
      ACEStransformID: urn:ampas:aces:transformId:v1.5:RRTODT.Academy.Rec2020_1000nits_15nits_HLG.a1.1.0
      ACEStransformID: urn:ampas:aces:transformId:v1.5:RRTODT.Academy.Rec2020_1000nits_15nits_ST2084.a1.1.0
    from_scene_reference: !<BuiltinTransform> {style: ACES-OUTPUT - ACES2065-1_to_CIE-XYZ-D65 - HDR-VIDEO-1000nit-15nit-REC2020lim_1.1}

  - !<ViewTransform>
    name: ACES 1.1 - HDR Video (2000 nits & Rec.2020 lim)
    description: |
      Component of ACES Output Transforms for 2000 nit HDR D65 video
      
      ACEStransformID: urn:ampas:aces:transformId:v1.5:RRTODT.Academy.Rec2020_2000nits_15nits_ST2084.a1.1.0
    from_scene_reference: !<BuiltinTransform> {style: ACES-OUTPUT - ACES2065-1_to_CIE-XYZ-D65 - HDR-VIDEO-2000nit-15nit-REC2020lim_1.1}

  - !<ViewTransform>
    name: ACES 1.1 - HDR Video (4000 nits & Rec.2020 lim)
    description: |
      Component of ACES Output Transforms for 4000 nit HDR D65 video
      
      ACEStransformID: urn:ampas:aces:transformId:v1.5:RRTODT.Academy.Rec2020_4000nits_15nits_ST2084.a1.1.0
    from_scene_reference: !<BuiltinTransform> {style: ACES-OUTPUT - ACES2065-1_to_CIE-XYZ-D65 - HDR-VIDEO-4000nit-15nit-REC2020lim_1.1}

  - !<ViewTransform>
    name: ACES 1.1 - HDR Video (1000 nits & P3 lim)
    description: |
      Component of ACES Output Transforms for 1000 nit HDR D65 video
      
      ACEStransformID: urn:ampas:aces:transformId:v1.5:RRTODT.Academy.P3D65_1000nits_15nits_ST2084.a1.1.0
    from_scene_reference: !<BuiltinTransform> {style: ACES-OUTPUT - ACES2065-1_to_CIE-XYZ-D65 - HDR-VIDEO-1000nit-15nit-P3lim_1.1}

  - !<ViewTransform>
    name: ACES 1.1 - HDR Video (2000 nits & P3 lim)
    description: |
      Component of ACES Output Transforms for 2000 nit HDR D65 video
      
      ACEStransformID: urn:ampas:aces:transformId:v1.5:RRTODT.Academy.P3D65_2000nits_15nits_ST2084.a1.1.0
    from_scene_reference: !<BuiltinTransform> {style: ACES-OUTPUT - ACES2065-1_to_CIE-XYZ-D65 - HDR-VIDEO-2000nit-15nit-P3lim_1.1}

  - !<ViewTransform>
    name: ACES 1.1 - HDR Video (4000 nits & P3 lim)
    description: |
      Component of ACES Output Transforms for 4000 nit HDR D65 video
      
      ACEStransformID: urn:ampas:aces:transformId:v1.5:RRTODT.Academy.P3D65_4000nits_15nits_ST2084.a1.1.0
    from_scene_reference: !<BuiltinTransform> {style: ACES-OUTPUT - ACES2065-1_to_CIE-XYZ-D65 - HDR-VIDEO-4000nit-15nit-P3lim_1.1}

  - !<ViewTransform>
    name: ACES 1.0 - SDR Cinema
    description: |
      Component of ACES Output Transforms for SDR cinema
      
      ACEStransformID: urn:ampas:aces:transformId:v1.5:ODT.Academy.P3D60_48nits.a1.0.3
      ACEStransformID: urn:ampas:aces:transformId:v1.5:ODT.Academy.P3D65_48nits.a1.1.0
    from_scene_reference: !<BuiltinTransform> {style: ACES-OUTPUT - ACES2065-1_to_CIE-XYZ-D65 - SDR-CINEMA_1.0}

  - !<ViewTransform>
    name: ACES 1.1 - SDR Cinema (D60 sim on D65)
    description: |
      Component of ACES Output Transforms for SDR D65 cinema simulating D60 white
      
      ACEStransformID: urn:ampas:aces:transformId:v1.5:ODT.Academy.P3D65_D60sim_48nits.a1.1.0
    from_scene_reference: !<BuiltinTransform> {style: ACES-OUTPUT - ACES2065-1_to_CIE-XYZ-D65 - SDR-CINEMA-D60sim-D65_1.1}

  - !<ViewTransform>
    name: ACES 1.1 - SDR Cinema (Rec.709 lim)
    description: |
      Component of ACES Output Transforms for SDR cinema
      
      ACEStransformID: urn:ampas:aces:transformId:v1.5:ODT.Academy.P3D65_Rec709limited_48nits.a1.1.0
    from_scene_reference: !<BuiltinTransform> {style: ACES-OUTPUT - ACES2065-1_to_CIE-XYZ-D65 - SDR-CINEMA-REC709lim_1.1}

  - !<ViewTransform>
    name: ACES 1.0 - SDR Cinema (D60 sim on DCI)
    description: |
      Component of ACES Output Transforms for SDR DCI cinema simulating D60 white
      
      ACEStransformID: urn:ampas:aces:transformId:v1.5:ODT.Academy.P3DCI_48nits.a1.0.3
    from_scene_reference: !<BuiltinTransform> {style: ACES-OUTPUT - ACES2065-1_to_CIE-XYZ-D65 - SDR-CINEMA-D60sim-DCI_1.0}

  - !<ViewTransform>
    name: ACES 1.1 - SDR Cinema (D65 sim on DCI)
    description: |
      Component of ACES Output Transforms for SDR DCI cinema simulating D65 white
      
      ACEStransformID: urn:ampas:aces:transformId:v1.5:ODT.Academy.P3DCI_D65sim_48nits.a1.1.0
    from_scene_reference: !<BuiltinTransform> {style: ACES-OUTPUT - ACES2065-1_to_CIE-XYZ-D65 - SDR-CINEMA-D65sim-DCI_1.1}

  - !<ViewTransform>
    name: ACES 1.1 - HDR Cinema (108 nits & P3 lim)
    description: |
      Component of ACES Output Transforms for 108 nit HDR D65 cinema
      
      ACEStransformID: urn:ampas:aces:transformId:v1.5:RRTODT.Academy.P3D65_108nits_7point2nits_ST2084.a1.1.0
    from_scene_reference: !<BuiltinTransform> {style: ACES-OUTPUT - ACES2065-1_to_CIE-XYZ-D65 - HDR-CINEMA-108nit-7.2nit-P3lim_1.1}

  - !<ViewTransform>
    name: Un-tone-mapped
    from_scene_reference: !<BuiltinTransform> {style: UTILITY - ACES-AP0_to_CIE-XYZ-D65_BFD}

display_colorspaces:
  - !<ColorSpace>
    name: CIE-XYZ-D65
    aliases: [cie_xyz_d65]
    family: ""
    equalitygroup: ""
    bitdepth: 32f
    description: The "CIE XYZ (D65)" display connection colorspace.
    isdata: false
    allocation: uniform

  - !<ColorSpace>
    name: sRGB - Display
    aliases: [srgb_display]
    family: Display
    equalitygroup: ""
    bitdepth: 32f
    description: Convert CIE XYZ (D65 white) to sRGB (piecewise EOTF)
    isdata: false
    categories: [file-io]
    encoding: sdr-video
    allocation: uniform
    from_display_reference: !<BuiltinTransform> {style: DISPLAY - CIE-XYZ-D65_to_sRGB}

  - !<ColorSpace>
    name: Rec.1886 Rec.709 - Display
    aliases: [rec1886_rec709_display]
    family: Display
    equalitygroup: ""
    bitdepth: 32f
    description: Convert CIE XYZ (D65 white) to Rec.1886/Rec.709 (HD video)
    isdata: false
    categories: [file-io]
    encoding: sdr-video
    allocation: uniform
    from_display_reference: !<BuiltinTransform> {style: DISPLAY - CIE-XYZ-D65_to_REC.1886-REC.709}

  - !<ColorSpace>
    name: Rec.1886 Rec.2020 - Display
    aliases: [rec1886_rec2020_display]
    family: Display
    equalitygroup: ""
    bitdepth: 32f
    description: Convert CIE XYZ (D65 white) to Rec.1886/Rec.2020 (UHD video)
    isdata: false
    categories: [file-io]
    encoding: sdr-video
    allocation: uniform
    from_display_reference: !<BuiltinTransform> {style: DISPLAY - CIE-XYZ-D65_to_REC.1886-REC.2020}

  - !<ColorSpace>
    name: Rec.2100-HLG - Display
    aliases: [rec2100_hlg_display]
    family: Display
    equalitygroup: ""
    bitdepth: 32f
    description: Convert CIE XYZ (D65 white) to Rec.2100-HLG, 1000 nit
    isdata: false
    categories: [file-io]
    encoding: hdr-video
    allocation: uniform
    from_display_reference: !<BuiltinTransform> {style: DISPLAY - CIE-XYZ-D65_to_REC.2100-HLG-1000nit}

  - !<ColorSpace>
    name: Rec.2100-PQ - Display
    aliases: [rec2100_pq_display]
    family: Display
    equalitygroup: ""
    bitdepth: 32f
    description: Convert CIE XYZ (D65 white) to Rec.2100-PQ
    isdata: false
    categories: [file-io]
    encoding: hdr-video
    allocation: uniform
    from_display_reference: !<BuiltinTransform> {style: DISPLAY - CIE-XYZ-D65_to_REC.2100-PQ}

  - !<ColorSpace>
    name: ST2084-P3-D65 - Display
    aliases: [st2084_p3d65_display]
    family: Display
    equalitygroup: ""
    bitdepth: 32f
    description: Convert CIE XYZ (D65 white) to ST-2084 (PQ), P3-D65 primaries
    isdata: false
    categories: [file-io]
    encoding: hdr-video
    allocation: uniform
    from_display_reference: !<BuiltinTransform> {style: DISPLAY - CIE-XYZ-D65_to_ST2084-P3-D65}

  - !<ColorSpace>
    name: P3-D60 - Display
    aliases: [p3d60_display]
    family: Display
    equalitygroup: ""
    bitdepth: 32f
    description: Convert CIE XYZ (D65 white) to Gamma 2.6, P3-D60 (Bradford adaptation)
    isdata: false
    categories: [file-io]
    encoding: sdr-video
    allocation: uniform
    from_display_reference: !<BuiltinTransform> {style: DISPLAY - CIE-XYZ-D65_to_G2.6-P3-D60-BFD}

  - !<ColorSpace>
    name: P3-D65 - Display
    aliases: [p3d65_display]
    family: Display
    equalitygroup: ""
    bitdepth: 32f
    description: Convert CIE XYZ (D65 white) to Gamma 2.6, P3-D65
    isdata: false
    categories: [file-io]
    encoding: sdr-video
    allocation: uniform
    from_display_reference: !<BuiltinTransform> {style: DISPLAY - CIE-XYZ-D65_to_G2.6-P3-D65}

  - !<ColorSpace>
    name: P3-DCI - Display
    aliases: [p3_dci_display]
    family: Display
    equalitygroup: ""
    bitdepth: 32f
    description: Convert CIE XYZ (D65 white) to Gamma 2.6, P3-DCI (DCI white with Bradford adaptation)
    isdata: false
    categories: [file-io]
    encoding: sdr-video
    allocation: uniform
    from_display_reference: !<BuiltinTransform> {style: DISPLAY - CIE-XYZ-D65_to_G2.6-P3-DCI-BFD}

colorspaces:
  - !<ColorSpace>
    name: ACES2065-1
    aliases: [aces2065_1, ACES - ACES2065-1, lin_ap0]
    family: ACES
    equalitygroup: ""
    bitdepth: 32f
    description: The "Academy Color Encoding System" reference colorspace.
    isdata: false
    categories: [file-io]
    encoding: scene-linear
    allocation: uniform

  - !<ColorSpace>
    name: ACEScc
    aliases: [ACES - ACEScc, acescc_ap1]
    family: ACES
    equalitygroup: ""
    bitdepth: 32f
    description: |
      Convert ACEScc to ACES2065-1
      
      ACEStransformID: urn:ampas:aces:transformId:v1.5:ACEScsc.Academy.ACEScc_to_ACES.a1.0.3
    isdata: false
    categories: [file-io]
    encoding: log
    allocation: uniform
    to_scene_reference: !<BuiltinTransform> {style: ACEScc_to_ACES2065-1}

  - !<ColorSpace>
    name: ACEScct
    aliases: [ACES - ACEScct, acescct_ap1]
    family: ACES
    equalitygroup: ""
    bitdepth: 32f
    description: |
      Convert ACEScct to ACES2065-1
      
      ACEStransformID: urn:ampas:aces:transformId:v1.5:ACEScsc.Academy.ACEScct_to_ACES.a1.0.3
    isdata: false
    categories: [file-io, working-space]
    encoding: log
    allocation: uniform
    to_scene_reference: !<BuiltinTransform> {style: ACEScct_to_ACES2065-1}

  - !<ColorSpace>
    name: ACEScg
    aliases: [ACES - ACEScg, lin_ap1]
    family: ACES
    equalitygroup: ""
    bitdepth: 32f
    description: |
      Convert ACEScg to ACES2065-1
      
      ACEStransformID: urn:ampas:aces:transformId:v1.5:ACEScsc.Academy.ACEScg_to_ACES.a1.0.3
    isdata: false
    categories: [file-io, working-space]
    encoding: scene-linear
    allocation: uniform
    to_scene_reference: !<BuiltinTransform> {style: ACEScg_to_ACES2065-1}

  - !<ColorSpace>
    name: ADX10
    aliases: [Input - ADX - ADX10]
    family: ACES
    equalitygroup: ""
    bitdepth: 32f
    description: |
      Convert ADX10 to ACES2065-1
      
      ACEStransformID: urn:ampas:aces:transformId:v1.5:ACEScsc.Academy.ADX10_to_ACES.a1.0.3
    isdata: false
    categories: [file-io]
    encoding: log
    allocation: uniform
    to_scene_reference: !<BuiltinTransform> {style: ADX10_to_ACES2065-1}

  - !<ColorSpace>
    name: ADX16
    aliases: [Input - ADX - ADX16]
    family: ACES
    equalitygroup: ""
    bitdepth: 32f
    description: |
      Convert ADX16 to ACES2065-1
      
      ACEStransformID: urn:ampas:aces:transformId:v1.5:ACEScsc.Academy.ADX16_to_ACES.a1.0.3
    isdata: false
    categories: [file-io]
    encoding: log
    allocation: uniform
    to_scene_reference: !<BuiltinTransform> {style: ADX16_to_ACES2065-1}

  - !<ColorSpace>
    name: Linear ARRI Wide Gamut 3
    aliases: [lin_arri_wide_gamut_3, Input - ARRI - Linear - ALEXA Wide Gamut, lin_alexawide]
    family: Input/ARRI
    equalitygroup: ""
    bitdepth: 32f
    description: |
      Convert Linear ARRI Wide Gamut 3 to ACES2065-1
      
      CLFtransformID: urn:aswf:ocio:transformId:1.0:ARRI:Input:Linear_ARRI_Wide_Gamut_3_to_ACES2065-1:1.0
    isdata: false
    categories: [file-io]
    encoding: scene-linear
    allocation: uniform
    to_scene_reference: !<GroupTransform>
      name: Linear ARRI Wide Gamut 3 to ACES2065-1
      children:
        - !<MatrixTransform> {matrix: [0.680205505106279, 0.236136601606481, 0.0836578932872399, 0, 0.0854149797421404, 1.01747087860704, -0.102885858349182, 0, 0.00205652166929683, -0.0625625003847921, 1.0605059787155, 0, 0, 0, 0, 1]}

  - !<ColorSpace>
    name: ARRI LogC3 (EI800)
    aliases: [arri_logc3_ei800, Input - ARRI - V3 LogC (EI800) - Wide Gamut, logc3ei800_alexawide]
    family: Input/ARRI
    equalitygroup: ""
    bitdepth: 32f
    description: |
      Convert ARRI LogC3 (EI800) to ACES2065-1
      
      CLFtransformID: urn:aswf:ocio:transformId:1.0:ARRI:Input:ARRI_LogC3_EI800_to_ACES2065-1:1.0
    isdata: false
    categories: [file-io]
    encoding: log
    allocation: uniform
    to_scene_reference: !<GroupTransform>
      name: ARRI LogC3 (EI800) to ACES2065-1
